!!!COM: Bach, Johann Sebastian
!!!OPR: Joh. Seb. Bachs vierstimmige Choralges‰nge
!!!XEN: Four-part Chorales
!!!OTL: 181. Wer nur den lieben Gott l‰sst walten
!!!SCT: BWV 434
!!!SCA: Thematisch-systematisches Verzeichnis der musikalischen Werke Johann Sebastian Bach: Bach-Werke-Verzeichnis (Schmieder)
!!!YOR: Bach Gesellschaft Edition xxxix
!!!ENC: Steven Rasmussen
!!!CDT: 1685/3//-1750/7/28/
!!!OCY: Deutschland
!!!YEC: Copyright (c) 1994, 2000 Center for Computer Assisted Research in the Humanities
!!!YEM: Rights to all derivative editions reserved
!!!YEN: United States of America
**kern	**kern	**kern	**kern	**silbe
*I:[BASSO]	*I:[TENORE]	*I:[ALTO]	*I:[SOPRANO]	*I:[SOPRANO]
*>[A,A,B]	*>[A,A,B]	*>[A,A,B]	*>[A,A,B]	*
*>A	*>A	*>A	*>A	*
*clefF4	*clefGv2	*clefG2	*clefG2	*
*k[]	*k[]	*k[]	*k[]	*
*a:	*a:	*a:	*a:	*
*M4/4	*M4/4	*M4/4	*M4/4	*
4A	8AL	8cL	4e	Werden
.	8BJ	8dJ	.	.
=1	=1	=1	=1	=1
4C	8cL	4e	4a	nurwird
.	8BJ	.	.	.
4E	8AL	4e	4b	dener
.	8G#J	.	.	.
4AA	4A	8eL	4cc	lie-wun-
.	.	8f#J	.	.
4BB	4D	4g#	4b	-ben-der-
=2	=2	=2	=2	=2
4C	8EL	8aL	4a	Gott-bar
.	8eJ	8gJ	.	.
4D	8dL	4f	4b	l√§sster-
.	8cJ	.	.	.
2E	4.B	2e	4.g#	wal--hal-
.	8A	.	8f#	.
=3	=3	=3	=3	=3
4E;	4G#;	4B;	4e;	-ten-ten
4E	4B	4e	4g	undin
4A	4c	4e	4g	hof-al-
8BL	8dL	4d	4f	-fet-lem
8AJ	8cJ	.	.	.
=4	=4	=4	=4	=4
8G#L	8BL	8dL	4e	aufKreuz
8GnJ	8AJ	8c#J	.	.
8F#L	8AL	8dL	4a	ihnund
8FnJ	8BJ	8d#J	.	.
8EL	8cL	8eL	8aL	al-Trau-
8D#J	8BJ	8f#J	8bJ	.
4E	8BL	4e	4g#	-le--rig-
.	16cL	.	.	.
.	16dJJ	.	.	.
=5	=5	=5	=5	=5
2.AA;	2.c;	2.e;	2.a;	-zeit,-keit.
=:|!	=:|!	=:|!	=:|!	=:|!
*>B	*>B	*>B	*>B	*
4E	4e	4g#	4b	Wer
=6	=6	=6	=6	=6
4A	4e	4a	4cc	Gott
4B	4d	4g	4dd	dem
8cL	4c	4g	4ee	Al-
8BJ	.	.	.	.
8AL	4c	4a	4ee	-ler-
8GJ	.	.	.	.
=7	=7	=7	=7	=7
8FL	4c	4a	8ddL	-h√∂ch-
8DJ	.	.	16eeL	.
.	.	.	16ffJJ	.
4G	4B	8gL	4dd	-sten
.	.	8fJ	.	.
4C;	4G;	4e;	4cc;	traut,
4C#	4A	4e	4ee	der
=8	=8	=8	=8	=8
8DL	8AL	8f#L	4dd	hat
8EJ	8eJ	8g#J	.	.
8FL	8eL	4a	4cc	auf
8F#J	8e-J	.	.	.
8GL	4d	8gnL	4b	kei-
8G#J	.	8fnJ	.	.
4A	8cL	4e	8aL	-nen
.	8BJ	.	8bJ	.
=9	=9	=9	=9	=9
4D#	4A	4f#	8ccL	Sand
.	.	.	8bJ	.
4E	4G#	8eL	4b	ge-
.	.	8dJ	.	.
4AA;	4E;	4c#;	4a;	-baut.
==|!	==|!	==|!	==|!	==|!
*-	*-	*-	*-	*-
!!!RWG: Key is interpreted using the Humdrum key tool.
!!!END: 1994/08/09
!!!EMD: Converted from MuseData to Humdrum Dec 19, 2000, by Andreas Kornstaedt using muse2kern.
!!!EED: Craig Stuart Sapp
!!!EEV: 2024/03/31
!!!ONB: Some non-unicode characters
!!!filter-keyboard: satb2gs
